X:1
T: Doctor Profeit
C:Alexander Walker and J. Scott Skinner
R:Strathspey
Q: 128
K:Bb
M:4/4
L:1/16
|:F2|B3c Bcdc BB,3 B,3C|D3E F3A B4 Bd3|c3d cded cC3 C3D|D3E G3=B c4 c2F2|
B3c Bcdc BB,3 B,3C|D3E F3A B4 Bd3|eg3 e3c df3 d3B|c3B d3B G6a2|
bagf b3f df3 B3d|e3c d3B G4 G3f|bagf b3f df3 d3B|G3e dcBA B4 B3f|
bagf b3f df3 B3d|e3c d3B G4 G3f|d3B c3A B3F G3E|D3F GABc d2B2 B2:|
